X: 207
P: Longways for as many as will
M: 6/4
L: 1/8
K: Am
(c2A2)c2 (B2E2)B2 | c2(AB) (cA) (B2E2)B2 | cde2c2 B2E2^G2 | A4a2 a4B2 | c3BA2 B3A^G2 | A3B (A/B/c) B3cd2 |
c3BA2 B3A^G2 | A4a2 a4B2 | e2(cd) (ec) g3ag2 | d2(Bc) (dB) f4f2 | f2gfe2 e2fed2 | d3edc d2B2G2 | c3d cd d4c2 |
c2E2G2 G2E2C2 | f3e dc B2E2B2 | c2(AB) (cA) B2E2B2 | cBcd ec edef ge | ^fefg a^f ^g4a2 | (e2B2)c2 (B2E2)^G2 | A6- A4 |]

